!!! OTL: Berkowitz614
!!! Chapter: 1
!!! Section: V
!!! Page: 156
!!! Mode: 
!!! Encoder: AR
**kern
*staff1
=1-
!!pagebreak:original
*clefF4
*k[]
*C:
*M4/4
4A-\
4C/
2AAn/
=2
8A-\L
8c\
8A-\
8BB\J
2GG/
=3
8AA-/L
8F/J
4F\
2D\
=4
8AA-\L
8F\
8F\
8F\J
2E\
=5
4AAn/
4G-\
2B-\
=6
8AA\L
8G-\
8B-\
8G-\J
2BB-/
=7
!!linebreak:original
8GGn/L
8AA/
8C#/
8BBn/J
8AA/L
8BB-/J
4E\
=8
8E\L
8G#\
8E\
8BB-\J
8E\L
8Gn\
8E\
8AA-\J
=9
8BB-/L
8C/
8D/
8BBn/J
8D-\L
8E-\J
4F\
=10
!!linebreak:original
4A\
4C/
2AA-/
=11
8An\L
8c#\
8A\
8Cn\J
4AA-/
4AA-/
=12
2.F\
4r
==
*-
